; generated by PrusaSlicer 2.6.1+win64 on 2023-09-26 at 07:34:53 UTC


;
;
; 

; external perimeters extrusion width = 0.45mm
; perimeters extrusion width = 0.45mm
; infill extrusion width = 0.45mm
; solid infill extrusion width = 0.45mm
; top infill extrusion width = 0.40mm
; first layer extrusion width = 0.42mm

M73 P0 R135
M201 X9000 Y9000 Z500 E10000 ; sets maximum accelerations, mm/sec^2
M203 X500 Y500 Z12 E120 ; sets maximum feedrates, mm / sec
M204 S2000 T1500 ; sets acceleration (S) and retract acceleration (R), mm/sec^2
M205 X10.00 Y10.00 Z0.20 E4.50 ; sets the jerk limits, mm/sec
M205 S0 T0 ; sets the minimum extruding and travel feed rate, mm/sec
;TYPE:Custom
M862.3 P "MK2.5S" ; printer model check
M862.1 P0.4 ; nozzle diameter check
M115 U3.13.1 ; tell printer latest fw version
G90 ; use absolute coordinates
M83 ; extruder relative mode
M104 S215 ; set extruder temp
M140 S60 ; set bed temp
M190 S60 ; wait for bed temp
M109 S215 ; wait for extruder temp
G28 W ; home all without mesh bed level
G80 ; mesh bed leveling

G1 Z0.2 F720
G1 Y-3 F1000 ; go outside print area
G92 E0
G1 X60 E9 F1000 ; intro line
G1 X100 E12.5 F1000 ; intro line

G92 E0
G21 ; set units to millimeters
G90 ; use absolute coordinates
M83 ; use relative distances for extrusion
M900 K0.05 ; Filament gcode LA 1.5
M900 K30 ; Filament gcode LA 1.0
M107
;LAYER_CHANGE
;Z:0.2
;HEIGHT:0.2
;BEFORE_LAYER_CHANGE
G92 E0.0
;0.2


G1 E-.8 F2100
G1 Z.4 F720
;AFTER_LAYER_CHANGE
;0.2
G1 X80.134 Y53.666 F10800
G1 Z.2 F720
G1 E.8 F2100
M204 S800
;TYPE:Skirt/Brim
;WIDTH:0.42
G1 F1200
G1 X82.966 Y49.923 E.14717
G1 X86.303 Y46.619 E.14724
G1 X89.79 Y44.009 E.13657
G1 X93.898 Y41.739 E.14716
G1 X98.613 Y39.98 E.15779
G1 X103.206 Y39.005 E.14722
G1 X107.89 Y38.695 E.14718
G1 X112.57 Y39.054 E.14717
G1 X117.152 Y40.075 E.14719
G1 X121.541 Y41.739 E.14717
G1 X125.65 Y44.009 E.14719
G1 X129.393 Y46.842 E.14718
G1 X132.695 Y50.179 E.14719
G1 X135.489 Y53.951 E.14718
G1 X137.718 Y58.083 E.1472
G1 X139.323 Y62.437 E.1455
G1 X156.912 Y135.347 E2.35162
G1 X157.016 Y136.228 E.02781
M73 P0 R134
G1 X156.97 Y137.166 E.02945
G1 X156.761 Y138.084 E.02952
G1 X156.395 Y138.955 E.02962
G1 X155.884 Y139.747 E.02955
G1 X155.244 Y140.438 E.02953
G1 X154.494 Y141.007 E.02952
G1 X153.656 Y141.438 E.02955
G1 X152.347 Y141.789 E.04249
G1 X150.878 Y141.789 E.04606
G1 X149.569 Y141.438 E.04249
G1 X148.73 Y141.007 E.02957
G1 X89.79 Y99.181 E2.26606
G1 X86.046 Y96.349 E.14719
G1 X82.744 Y93.012 E.14719
G1 X79.951 Y89.24 E.14716
G1 X77.722 Y85.108 E.1472
G1 X76.105 Y80.702 E.14716
G1 X75.13 Y76.11 E.14719
G1 X74.819 Y71.765 E.13658
G1 X75.13 Y67.081 E.14719
G1 X76.105 Y62.489 E.14719
G1 X77.722 Y58.083 E.14716
G1 X80.106 Y53.719 E.15592
M204 S1000
; printing object Pecsét.stl id:0 copy 0
;WIPE_START
G1 F8640
G1 X82.191 Y50.952 E-.8
;WIPE_END
G1 Z.6 F720
G1 X152.151 Y136.431 F10800
G1 Z.2 F720
G1 E.8 F2100
M204 S800
;TYPE:Perimeter
;WIDTH:0.419999
G1 F1200
G1 X152.086 Y136.704 E.0088
G1 X151.882 Y136.897 E.00881
G1 X151.612 Y136.978 E.00884
G1 X151.343 Y136.897 E.00881
G1 X151.139 Y136.704 E.00881
G1 X151.074 Y136.432 E.00877
G1 X151.139 Y136.158 E.00883
G1 X151.343 Y135.966 E.00878
G1 X151.612 Y135.885 E.00881
G1 X151.882 Y135.966 E.00884
G1 X152.086 Y136.158 E.00878
G1 X152.137 Y136.372 E.0069
M204 S1000
G1 X152.528 Y136.27 F10800
M204 S800
;TYPE:External perimeter
G1 F1200
G1 X152.528 Y136.593 E.01013
G1 X152.417 Y136.896 E.01012
G1 X152.21 Y137.143 E.0101
G1 X151.93 Y137.305 E.01014
G1 X151.612 Y137.361 E.01012
G1 X151.294 Y137.305 E.01012
G1 X151.015 Y137.143 E.01012
G1 X150.807 Y136.896 E.01012
G1 X150.697 Y136.593 E.01011
G1 X150.697 Y136.27 E.01013
G1 X150.807 Y135.967 E.01011
G1 X151.015 Y135.72 E.01012
G1 X151.294 Y135.558 E.01012
G1 X151.612 Y135.502 E.01012
G1 X151.93 Y135.558 E.01012
G1 X152.21 Y135.72 E.01014
G1 X152.417 Y135.967 E.0101
G1 X152.507 Y136.213 E.00821
M204 S1000
G1 X152.28 Y136.478 F10800
G1 X151.53 Y136.072
M204 S800
;TYPE:Solid infill
;WIDTH:0.434686
G1 F1200
G1 X151.787 Y136.331 E.01189
G1 X151.811 Y136.467 E.0045
G1 X151.742 Y136.586 E.00448
G1 X151.682 Y136.621 E.00226
G1 X151.543 Y136.621 E.00453
G1 X151.251 Y136.347 E.01304
M204 S1000
;WIPE_START
G1 F8640
G1 X151.543 Y136.621 E-.09246
G1 X151.682 Y136.621 E-.0321
G1 X151.742 Y136.586 E-.01604
G1 X151.811 Y136.467 E-.03176
G1 X151.787 Y136.331 E-.03189
G1 X151.53 Y136.072 E-.08425
;WIPE_END
G1 E-.5115 F2100
G1 Z.6 F720
G1 X92.567 Y73.517 F10800
G1 Z.2 F720
G1 E.8 F2100
M204 S800
;TYPE:Perimeter
;WIDTH:0.419999
G1 F1200
G1 X92.976 Y74.15 E.02363
G1 X93.289 Y74.862 E.02439
G1 X93.5 Y75.64 E.02527
G1 X93.561 Y76.157 E.01632
G1 X93.592 Y76.784 E.01968
G1 X93.58 Y77.334 E.01725
G1 X93.436 Y78.218 E.02808
G1 X93.162 Y79.107 E.02917
G1 X92.769 Y79.949 E.02913
G1 X92.283 Y80.702 E.0281
G1 X91.716 Y81.355 E.02712
G1 X91.087 Y81.905 E.0262
G1 X90.41 Y82.341 E.02525
G1 X89.7 Y82.66 E.02441
G1 X88.973 Y82.855 E.0236
G1 X88.242 Y82.923 E.02302
G1 X87.518 Y82.861 E.02278
G1 X86.807 Y82.662 E.02315
G1 X86.146 Y82.332 E.02316
G1 X85.566 Y81.893 E.02281
G1 X85.07 Y81.352 E.02301
G1 X84.662 Y80.719 E.02361
G1 X84.349 Y80.007 E.02439
G1 X84.138 Y79.23 E.02524
G1 X84.039 Y78.401 E.02618
G1 X84.058 Y77.537 E.0271
G1 X84.202 Y76.652 E.02811
G1 X84.475 Y75.762 E.02919
G1 X84.868 Y74.92 E.02913
G1 X85.354 Y74.168 E.02807
G1 X85.92 Y73.514 E.02712
G1 X86.55 Y72.965 E.0262
G1 X87.227 Y72.528 E.02526
G1 X87.937 Y72.21 E.02439
G1 X88.664 Y72.015 E.0236
G1 X89.395 Y71.947 E.02302
G1 X90.119 Y72.008 E.02278
G1 X90.829 Y72.207 E.02312
G1 X91.491 Y72.536 E.02318
G1 X92.071 Y72.976 E.02283
G1 X92.527 Y73.472 E.02113
M204 S1000
G1 X92.867 Y73.285 F10800
M204 S800
;TYPE:External perimeter
G1 F1200
G1 X93.309 Y73.97 E.02556
G1 X93.646 Y74.736 E.02624
G1 X93.871 Y75.569 E.02705
G1 X93.936 Y76.113 E.01718
G1 X93.968 Y76.792 E.02131
G1 X93.956 Y77.368 E.01806
G1 X93.804 Y78.304 E.02973
G1 X93.515 Y79.243 E.0308
G1 X93.1 Y80.132 E.03076
G1 X92.585 Y80.929 E.02975
G1 X91.984 Y81.621 E.02874
G1 X91.314 Y82.207 E.02791
G1 X90.59 Y82.673 E.027
G1 X89.827 Y83.016 E.02623
G1 X89.04 Y83.227 E.02555
G1 X88.243 Y83.302 E.0251
G1 X87.45 Y83.233 E.02496
G1 X86.671 Y83.015 E.02536
G1 X85.947 Y82.654 E.02537
G1 X85.311 Y82.173 E.025
G1 X84.771 Y81.584 E.02505
G1 X84.329 Y80.899 E.02556
G1 X83.992 Y80.133 E.02624
G1 X83.767 Y79.302 E.02699
G1 X83.662 Y78.42 E.02785
G1 X83.682 Y77.503 E.02876
G1 X83.834 Y76.566 E.02976
G1 X84.122 Y75.626 E.03083
G1 X84.537 Y74.736 E.03079
G1 X85.052 Y73.941 E.0297
G1 X85.653 Y73.247 E.02879
G1 X86.323 Y72.663 E.02787
G1 X87.046 Y72.196 E.02699
G1 X87.81 Y71.854 E.02625
G1 X88.597 Y71.642 E.02556
G1 X89.393 Y71.568 E.02507
G1 X90.186 Y71.636 E.02496
G1 X90.965 Y71.854 E.02536
G1 X91.69 Y72.214 E.02538
G1 X92.325 Y72.696 E.025
G1 X92.826 Y73.241 E.02321
M204 S1000
G1 X92.716 Y73.655 F10800
G1 X92.795 Y74.182
M204 S800
;TYPE:Solid infill
;WIDTH:0.421561
G1 F1200
G1 X91.84 Y73.227 E.04252
G1 X91.311 Y72.826 E.0209
G1 X90.706 Y72.525 E.02128
G1 X90.563 Y72.485 E.00468
G1 X92.902 Y74.824 E.10414
G1 X92.968 Y74.975 E.00519
G1 X93.135 Y75.593 E.02016
G1 X89.87 Y72.328 E.14538
G1 X89.396 Y72.287 E.01498
G1 X89.303 Y72.296 E.00294
G1 X93.227 Y76.22 E.17472
G1 X93.258 Y76.486 E.00843
G1 X93.252 Y76.781 E.00929
G1 X88.813 Y72.342 E.19765
G1 X88.379 Y72.443 E.01403
G1 X93.24 Y77.305 E.21646
G1 X93.166 Y77.766 E.0147
G1 X87.968 Y72.568 E.23144
G1 X87.598 Y72.734 E.01277
G1 X93.081 Y78.217 E.24413
G1 X92.955 Y78.626 E.01347
G1 X87.248 Y72.919 E.25411
G1 X86.922 Y73.129 E.01221
G1 X92.824 Y79.03 E.26277
G1 X92.653 Y79.395 E.01269
G1 X86.616 Y73.358 E.2688
G1 X86.33 Y73.607 E.01194
G1 X92.483 Y79.76 E.27396
G1 X92.275 Y80.088 E.01223
G1 X86.059 Y73.872 E.27677
G1 X85.811 Y74.159 E.01194
G1 X92.065 Y80.413 E.27846
G1 X91.826 Y80.71 E.012
G1 X85.572 Y74.456 E.27846
G1 X85.362 Y74.781 E.01218
G1 X91.577 Y80.997 E.27675
G1 X91.475 Y81.115 E.00491
G1 X91.307 Y81.262 E.00703
G1 X85.154 Y75.109 E.27396
G1 X84.984 Y75.474 E.01268
G1 X91.021 Y81.511 E.2688
G1 X90.882 Y81.633 E.00582
G1 X90.715 Y81.741 E.00626
G1 X84.813 Y75.839 E.26279
G1 X84.682 Y76.243 E.01337
G1 X90.389 Y81.95 E.25411
G1 X90.248 Y82.042 E.0053
G1 X90.039 Y82.135 E.0072
G1 X84.556 Y76.653 E.24411
G1 X84.472 Y77.104 E.01444
G1 X89.669 Y82.301 E.2314
G1 X89.259 Y82.427 E.0135
G1 X84.397 Y77.565 E.21648
G1 X84.386 Y78.089 E.0165
G1 X88.825 Y82.528 E.19765
G1 X88.335 Y82.574 E.0155
G1 X84.411 Y78.649 E.17474
G1 X84.472 Y79.165 E.01636
G1 X84.502 Y79.276 E.00362
G1 X87.768 Y82.542 E.14542
G1 X87.578 Y82.525 E.00601
G1 X87.075 Y82.384 E.01645
G1 X84.737 Y80.046 E.1041
G1 X84.962 Y80.558 E.01761
G1 X85.34 Y81.144 E.02196
G1 X85.793 Y81.638 E.0211
G1 X86.448 Y82.293 E.02916
M204 S1000
;WIPE_START
G1 F8640
G1 X85.793 Y81.638 E-.21389
G1 X85.34 Y81.144 E-.15476
G1 X84.962 Y80.558 E-.16102
G1 X84.737 Y80.046 E-.12913
G1 X85.169 Y80.478 E-.1412
;WIPE_END
G1 Z.6 F720
G1 X103.063 Y78.314 F10800
G1 Z.2 F720
G1 E.8 F2100
M204 S800
;TYPE:Perimeter
;WIDTH:0.419999
G1 F1200
G1 X103.944 Y78.568 E.02875
G1 X104.771 Y78.978 E.02894
G1 X105.534 Y79.534 E.0296
G1 X106.22 Y80.224 E.03051
G1 X106.813 Y81.036 E.03153
G1 X107.299 Y81.956 E.03262
G1 X107.663 Y82.968 E.03372
G1 X107.892 Y84.058 E.03492
G1 X107.97 Y85.209 E.03617
G1 X107.892 Y86.362 E.03623
G1 X107.663 Y87.452 E.03492
G1 X107.299 Y88.465 E.03375
G1 X106.813 Y89.384 E.0326
G1 X106.22 Y90.196 E.03153
G1 X105.534 Y90.886 E.03051
G1 X104.771 Y91.443 E.02962
G1 X103.944 Y91.853 E.02894
G1 X103.063 Y92.108 E.02876
G1 X102.138 Y92.196 E.02913
G1 X101.212 Y92.108 E.02916
G1 X100.332 Y91.853 E.02873
G1 X99.505 Y91.443 E.02894
G1 X98.743 Y90.886 E.02959
G1 X98.057 Y90.196 E.03051
G1 X97.464 Y89.384 E.03153
G1 X96.978 Y88.465 E.0326
G1 X96.613 Y87.452 E.03376
G1 X96.385 Y86.362 E.03492
G1 X96.306 Y85.209 E.03624
G1 X96.385 Y84.058 E.03617
G1 X96.613 Y82.968 E.03492
G1 X96.978 Y81.956 E.03373
G1 X97.464 Y81.036 E.03262
G1 X98.057 Y80.224 E.03153
G1 X98.743 Y79.534 E.03051
G1 X99.505 Y78.978 E.02958
G1 X100.332 Y78.568 E.02894
G1 X101.212 Y78.314 E.02872
G1 X102.138 Y78.225 E.02917
G1 X103.004 Y78.308 E.02728
M204 S1000
G1 X103.134 Y77.942 F10800
M204 S800
;TYPE:External perimeter
G1 F1200
G1 X104.081 Y78.215 E.0309
G1 X104.967 Y78.654 E.031
G1 X105.781 Y79.247 E.03158
G1 X106.508 Y79.978 E.03233
G1 X107.134 Y80.836 E.0333
G1 X107.644 Y81.803 E.03428
G1 X108.027 Y82.865 E.0354
G1 X108.266 Y84.006 E.03655
G1 X108.348 Y85.209 E.03781
G1 X108.266 Y86.414 E.03787
G1 X108.027 Y87.555 E.03655
G1 X107.644 Y88.617 E.0354
G1 X107.134 Y89.585 E.03431
G1 X106.508 Y90.441 E.03325
G1 X105.78 Y91.173 E.03237
G1 X104.967 Y91.767 E.03157
G1 X104.081 Y92.206 E.031
G1 X103.134 Y92.48 E.03091
G1 X102.138 Y92.575 E.03137
G1 X101.141 Y92.48 E.0314
G1 X100.195 Y92.206 E.03088
G1 X99.309 Y91.767 E.031
G1 X98.496 Y91.173 E.03157
G1 X97.769 Y90.441 E.03235
G1 X97.143 Y89.585 E.03325
G1 X96.632 Y88.617 E.03432
G1 X96.25 Y87.555 E.03539
G1 X96.01 Y86.414 E.03656
G1 X95.928 Y85.209 E.03787
G1 X96.01 Y84.006 E.03781
G1 X96.25 Y82.865 E.03656
G1 X96.632 Y81.803 E.03539
G1 X97.143 Y80.836 E.03429
G1 X97.769 Y79.978 E.0333
G1 X98.496 Y79.247 E.03233
G1 X99.309 Y78.654 E.03155
G1 X100.194 Y78.215 E.03097
G1 X101.141 Y77.942 E.0309
G1 X102.138 Y77.846 E.0314
G1 X103.075 Y77.936 E.02951
M204 S1000
G1 X103.266 Y78.32 F10800
;WIPE_START
G1 F8640
G1 X104.081 Y78.215 E-.24106
G1 X104.967 Y78.654 E-.22832
G1 X105.781 Y79.247 E-.23254
G1 X106.081 Y79.548 E-.09808
;WIPE_END
G1 Z.6 F720
G1 X106.695 Y81.176 F10800
G1 Z.2 F720
G1 E.8 F2100
M204 S800
;TYPE:Solid infill
;WIDTH:0.422562
G1 F1200
G1 X105.306 Y79.787 E.06201
G1 X104.594 Y79.269 E.02779
G1 X103.913 Y78.932 E.02399
G1 X106.889 Y81.907 E.13284
G1 X106.987 Y82.094 E.00666
G1 X107.241 Y82.796 E.02357
G1 X103.132 Y78.687 E.18344
G1 X103 Y78.649 E.00434
G1 X102.51 Y78.602 E.01554
G1 X107.434 Y83.526 E.21982
G1 X107.561 Y84.19 E.02134
G1 X101.955 Y78.584 E.25027
G1 X101.465 Y78.631 E.01554
G1 X107.6 Y84.766 E.27388
G1 X107.63 Y85.209 E.01402
G1 X107.622 Y85.325 E.00367
G1 X101.02 Y78.723 E.29473
G1 X100.603 Y78.843 E.0137
G1 X107.588 Y85.828 E.31183
G1 X107.552 Y86.329 E.01586
G1 X100.224 Y79 E.32717
G1 X99.865 Y79.178 E.01265
G1 X107.459 Y86.772 E.33902
G1 X107.366 Y87.216 E.01432
G1 X99.53 Y79.38 E.34982
G1 X99.219 Y79.606 E.01214
G1 X107.24 Y87.627 E.35808
G1 X107.098 Y88.022 E.01325
G1 X98.916 Y79.84 E.36527
G1 X98.649 Y80.11 E.01199
G1 X106.946 Y88.407 E.3704
G1 X106.76 Y88.758 E.01254
G1 X98.381 Y80.379 E.37406
G1 X98.145 Y80.679 E.01205
G1 X106.575 Y89.109 E.37634
G1 X106.359 Y89.431 E.01224
G1 X97.918 Y80.99 E.37683
G1 X97.703 Y81.311 E.0122
G1 X106.132 Y89.741 E.37632
G1 X105.896 Y90.041 E.01205
G1 X97.517 Y81.662 E.37406
G1 X97.331 Y82.014 E.01257
G1 X105.628 Y90.31 E.37038
G1 X105.36 Y90.58 E.01201
G1 X97.179 Y82.399 E.36522
G1 X97.037 Y82.793 E.01322
G1 X105.058 Y90.814 E.35808
G1 X104.747 Y91.04 E.01214
G1 X96.911 Y83.204 E.34982
G1 X96.818 Y83.648 E.01432
G1 X104.412 Y91.242 E.33902
G1 X104.053 Y91.42 E.01265
G1 X96.725 Y84.091 E.32717
G1 X96.689 Y84.592 E.01586
G1 X103.674 Y91.578 E.31185
G1 X103.258 Y91.698 E.01367
G1 X96.654 Y85.095 E.2948
G1 X96.677 Y85.654 E.01766
G1 X102.813 Y91.791 E.27395
G1 X102.323 Y91.837 E.01554
G1 X96.716 Y86.23 E.25031
G1 X96.843 Y86.894 E.02134
G1 X101.769 Y91.82 E.21991
G1 X101.276 Y91.773 E.01563
G1 X101.148 Y91.736 E.00421
G1 X97.036 Y87.624 E.18357
G1 X97.289 Y88.327 E.02359
G1 X97.387 Y88.512 E.00661
G1 X100.366 Y91.491 E.13299
G1 X99.682 Y91.152 E.0241
G1 X98.971 Y90.633 E.02779
G1 X97.581 Y89.243 E.06205
M204 S1000
;WIPE_START
G1 F8640
G1 X98.971 Y90.633 E-.4539
G1 X99.682 Y91.152 E-.20326
G1 X100.236 Y91.427 E-.14284
;WIPE_END
G1 Z.6 F720
G1 X114.734 Y75.874 F10800
G1 Z.2 F720
G1 E.8 F2100
M204 S800
;TYPE:Perimeter
;WIDTH:0.419999
G1 F1200
G1 X115.64 Y75.665 E.02915
G1 X116.556 Y75.629 E.02874
G1 X117.465 Y75.757 E.02878
G1 X118.369 Y76.045 E.02975
G1 X119.237 Y76.484 E.0305
G1 X120.056 Y77.067 E.03152
G1 X120.808 Y77.787 E.03264
G1 X121.473 Y78.633 E.03374
G1 X122.033 Y79.595 E.0349
G1 X122.472 Y80.663 E.0362
G1 X122.761 Y81.782 E.03624
G1 X122.887 Y82.888 E.0349
G1 X122.861 Y83.964 E.03375
G1 X122.689 Y84.99 E.03262
G1 X122.383 Y85.947 E.0315
G1 X121.95 Y86.818 E.0305
G1 X121.402 Y87.587 E.02961
G1 X120.746 Y88.237 E.02896
G1 X119.992 Y88.756 E.0287
G1 X119.141 Y89.131 E.02916
G1 X118.235 Y89.339 E.02915
G1 X117.319 Y89.376 E.02874
G1 X116.405 Y89.247 E.02894
G1 X115.506 Y88.96 E.02959
G1 X114.638 Y88.521 E.0305
G1 X113.818 Y87.937 E.03156
G1 X113.067 Y87.218 E.0326
G1 X112.403 Y86.373 E.0337
G1 X111.842 Y85.411 E.03492
G1 X111.404 Y84.342 E.03622
G1 X111.115 Y83.223 E.03624
G1 X110.989 Y82.117 E.0349
G1 X111.015 Y81.041 E.03375
G1 X111.186 Y80.015 E.03261
G1 X111.493 Y79.059 E.03148
G1 X111.926 Y78.187 E.03053
G1 X112.473 Y77.418 E.02959
G1 X113.129 Y76.768 E.02896
G1 X113.883 Y76.249 E.0287
G1 X114.679 Y75.898 E.02728
M204 S1000
G1 X114.614 Y75.514 F10800
M204 S800
;TYPE:External perimeter
G1 F1200
G1 X115.59 Y75.29 E.0314
G1 X116.575 Y75.251 E.03091
G1 X117.55 Y75.388 E.03087
G1 X118.513 Y75.695 E.03169
G1 X119.433 Y76.16 E.03232
G1 X120.297 Y76.776 E.03327
G1 X121.088 Y77.533 E.03433
G1 X121.785 Y78.42 E.03537
G1 X122.372 Y79.427 E.03655
G1 X122.83 Y80.544 E.03785
G1 X123.132 Y81.713 E.03786
G1 X123.265 Y82.871 E.03655
G1 X123.237 Y83.999 E.03538
G1 X123.057 Y85.079 E.03433
G1 X122.733 Y86.089 E.03326
G1 X122.275 Y87.013 E.03234
G1 X121.69 Y87.832 E.03156
G1 X120.988 Y88.529 E.03102
G1 X120.177 Y89.087 E.03087
G1 X119.261 Y89.491 E.03139
G1 X118.285 Y89.714 E.03139
G1 X117.3 Y89.754 E.03091
G1 X116.321 Y89.616 E.031
G1 X115.362 Y89.31 E.03156
G1 X114.442 Y88.845 E.03232
G1 X113.577 Y88.229 E.0333
G1 X112.787 Y87.472 E.03431
G1 X112.09 Y86.585 E.03537
G1 X111.503 Y85.579 E.03652
G1 X111.045 Y84.461 E.03788
G1 X110.743 Y83.292 E.03786
G1 X110.611 Y82.134 E.03654
G1 X110.639 Y81.005 E.03541
G1 X110.819 Y79.926 E.0343
G1 X111.142 Y78.917 E.03322
G1 X111.601 Y77.993 E.03235
G1 X112.185 Y77.173 E.03156
G1 X112.887 Y76.476 E.03102
G1 X113.698 Y75.918 E.03087
