; generated by PrusaSlicer 2.6.1+win64 on 2023-12-14 at 16:34:49 UTC


;
;
; 

; external perimeters extrusion width = 0.45mm
; perimeters extrusion width = 0.45mm
; infill extrusion width = 0.45mm
; solid infill extrusion width = 0.45mm
; top infill extrusion width = 0.40mm
; support material extrusion width = 0.35mm
; first layer extrusion width = 0.42mm

M73 P0 R117
M201 X9000 Y9000 Z500 E10000 ; sets maximum accelerations, mm/sec^2
M203 X500 Y500 Z12 E120 ; sets maximum feedrates, mm / sec
M204 S2000 T1500 ; sets acceleration (S) and retract acceleration (R), mm/sec^2
M205 X10.00 Y10.00 Z0.20 E4.50 ; sets the jerk limits, mm/sec
M205 S0 T0 ; sets the minimum extruding and travel feed rate, mm/sec
;TYPE:Custom
M862.3 P "MK2.5S" ; printer model check
M862.1 P0.4 ; nozzle diameter check
M115 U3.13.2 ; tell printer latest fw version
G90 ; use absolute coordinates
M83 ; extruder relative mode
M104 S215 ; set extruder temp
M140 S60 ; set bed temp
M190 S60 ; wait for bed temp
M109 S215 ; wait for extruder temp
G28 W ; home all without mesh bed level
G80 ; mesh bed leveling

G1 Z0.2 F720
G1 Y-3 F1000 ; go outside print area
G92 E0
G1 X60 E9 F1000 ; intro line
G1 X100 E12.5 F1000 ; intro line

G92 E0
G21 ; set units to millimeters
G90 ; use absolute coordinates
M83 ; use relative distances for extrusion
M900 K0.05 ; Filament gcode LA 1.5
M900 K30 ; Filament gcode LA 1.0

M107
;LAYER_CHANGE
;Z:0.2
;HEIGHT:0.2
;BEFORE_LAYER_CHANGE
G92 E0.0
;0.2


G1 E-.8 F2100
G1 Z.4 F720
;AFTER_LAYER_CHANGE
;0.2
G1 X103.177 Y81.989 F10800
G1 Z.2 F720
G1 E.8 F2100
M204 S800
;TYPE:Skirt/Brim
;WIDTH:0.42
G1 F1200
G1 X105.075 Y79.864 E.08934
G1 X107.346 Y77.791 E.09641
G1 X109.434 Y76.232 E.0817
G1 X111.86 Y74.755 E.08905
G1 X114.601 Y73.446 E.09524
G1 X117.075 Y72.554 E.08246
G1 X119.829 Y71.847 E.08915
G1 X122.631 Y71.416 E.08889
G1 X125.715 Y71.266 E.09681
G1 X128.528 Y71.416 E.08832
G1 X131.33 Y71.847 E.08889
G1 X133.854 Y72.483 E.08161
G1 X136.526 Y73.434 E.08893
G1 X139.094 Y74.644 E.08901
G1 X141.53 Y76.101 E.089
G1 X143.813 Y77.791 E.08906
G1 X145.92 Y79.699 E.08913
G1 X147.975 Y81.98 E.09626
G1 X149.656 Y84.281 E.08935
G1 X151.102 Y86.733 E.08925
G1 X152.302 Y89.314 E.08924
G1 X153.245 Y92.001 E.08929
G1 X153.922 Y94.769 E.08935
G1 X154.303 Y97.36 E.08211
G1 X154.454 Y100.205 E.08933
G1 X154.326 Y103.053 E.08939
G1 X153.923 Y105.867 E.08913
G1 X153.212 Y108.761 E.09344
G1 X142.332 Y144.359 E1.16712
G1 X139.877 Y149.341 E.17414
M73 P0 R116
G1 X138.943 Y150.335 E.04277
G1 X137.751 Y150.655 E.0387
G1 X111.101 Y150.655 E.83559
G1 X109.794 Y150.264 E.04277
G1 X108.806 Y148.899 E.05283
G1 X97.926 Y108.687 E1.30615
G1 X97.282 Y106.1 E.08359
G1 X96.856 Y103.282 E.08936
G1 X96.705 Y100.438 E.0893
G1 X96.833 Y97.59 E.08939
G1 X97.237 Y94.769 E.08935
G1 X97.914 Y92.001 E.08935
G1 X98.857 Y89.314 E.08929
G1 X100.144 Y86.566 E.09514
G1 X101.503 Y84.281 E.08336
G1 X103.142 Y82.037 E.08713
M204 S1000
; printing object Cup Holder.stl id:0 copy 0
;WIPE_START
G1 F8640
G1 X105.075 Y79.864 E-.67154
G1 X105.486 Y79.489 E-.12846
;WIPE_END
G1 Z.6 F720
G1 X140.058 Y143.664 F10800
G1 Z.2 F720
G1 E.8 F2100
M204 S800
;TYPE:Support material
G1 F1200
G1 X137.751 Y143.664 E.07233
G1 X137.751 Y148.278 E.14467
G1 X111.101 Y148.278 E.83559
G1 X111.101 Y123.214 E.78586
G1 X112.87 Y124.281 E.06477
G1 X115.243 Y125.411 E.08241
G1 X117.758 Y126.317 E.08382
G1 X120.304 Y126.959 E.08233
G1 X122.923 Y127.351 E.08303
G1 X125.591 Y127.483 E.08376
G1 X128.236 Y127.351 E.08304
G1 X130.832 Y126.963 E.0823
G1 X133.401 Y126.317 E.08306
G1 X135.916 Y125.411 E.08382
G1 X138.289 Y124.281 E.08241
G1 X140.058 Y123.214 E.06477
G1 X140.058 Y143.607 E.63941
M204 S1000
G1 X139.406 Y143.494 F10800
M204 S800
G1 F1200
G1 X139.406 Y124.004 E.6111
G1 X138.987 Y124.257 E.01535
G1 X138.987 Y143.325 E.59786
G1 X138.568 Y143.325 E.01314
G1 X138.568 Y124.51 E.58993
G1 X138.149 Y124.723 E.01474
G1 X138.149 Y143.325 E.58325
G1 X137.73 Y143.325 E.01314
G1 X137.73 Y124.923 E.57698
G1 X137.311 Y125.122 E.01454
G1 X137.311 Y147.939 E.71541
G1 X136.892 Y147.939 E.01314
G1 X136.892 Y125.322 E.70914
G1 X136.473 Y125.521 E.01454
G1 X136.473 Y147.939 E.7029
G1 X136.054 Y147.939 E.01314
G1 X136.054 Y125.721 E.69663
G1 X135.635 Y125.874 E.01399
G1 X135.635 Y147.939 E.69183
G1 X135.216 Y147.939 E.01314
G1 X135.216 Y126.025 E.6871
G1 X134.797 Y126.176 E.01396
G1 X134.797 Y147.939 E.68236
G1 X134.378 Y147.939 E.01314
G1 X134.378 Y126.327 E.67763
G1 X133.959 Y126.478 E.01396
G1 X133.959 Y147.939 E.67289
G1 X133.54 Y147.939 E.01314
G1 X133.54 Y126.629 E.66816
G1 X133.121 Y126.737 E.01357
G1 X133.121 Y147.939 E.66477
G1 X132.702 Y147.939 E.01314
G1 X132.702 Y126.843 E.66145
G1 X132.283 Y126.949 E.01355
G1 X132.283 Y147.939 E.65813
G1 X131.864 Y147.939 E.01314
G1 X131.864 Y127.054 E.65483
G1 X131.445 Y127.16 E.01355
G1 X131.445 Y147.939 E.65151
G1 X131.026 Y147.939 E.01314
G1 X131.026 Y127.266 E.64819
G1 X130.607 Y127.34 E.01334
G1 X130.607 Y147.939 E.64587
G1 X130.188 Y147.939 E.01314
G1 X130.188 Y127.403 E.64389
G1 X129.769 Y127.465 E.01328
G1 X129.769 Y147.939 E.64195
G1 X129.35 Y147.939 E.01314
G1 X129.35 Y127.528 E.63997
G1 X128.931 Y127.59 E.01328
G1 X128.931 Y147.939 E.63803
G1 X128.512 Y147.939 E.01314
G1 X128.512 Y127.653 E.63605
G1 X128.093 Y127.699 E.01322
G1 X128.093 Y147.939 E.63461
G1 X127.674 Y147.939 E.01314
G1 X127.674 Y127.72 E.63395
G1 X127.255 Y127.74 E.01315
G1 X127.255 Y147.939 E.63333
G1 X126.836 Y147.939 E.01314
G1 X126.836 Y127.761 E.63267
G1 X126.417 Y127.782 E.01315
G1 X126.417 Y147.939 E.63201
G1 X125.998 Y147.939 E.01314
G1 X125.998 Y127.803 E.63135
G1 X125.579 Y127.823 E.01315
G1 X125.579 Y147.939 E.63072
G1 X125.161 Y147.939 E.01311
G1 X125.161 Y127.803 E.63135
G1 X124.742 Y127.782 E.01315
G1 X124.742 Y147.939 E.63201
G1 X124.323 Y147.939 E.01314
G1 X124.323 Y127.761 E.63267
G1 X123.904 Y127.74 E.01315
G1 X123.904 Y147.939 E.63333
G1 X123.485 Y147.939 E.01314
G1 X123.485 Y127.72 E.63395
G1 X123.066 Y127.699 E.01315
G1 X123.066 Y147.939 E.63461
G1 X122.647 Y147.939 E.01314
G1 X122.647 Y127.653 E.63605
G1 X122.228 Y127.59 E.01329
G1 X122.228 Y147.939 E.63803
G1 X121.809 Y147.939 E.01314
G1 X121.809 Y127.528 E.63997
G1 X121.39 Y127.465 E.01329
G1 X121.39 Y147.939 E.64195
G1 X120.971 Y147.939 E.01314
M73 P1 R115
G1 X120.971 Y127.403 E.64389
G1 X120.552 Y127.34 E.01329
G1 X120.552 Y147.939 E.64587
G1 X120.133 Y147.939 E.01314
G1 X120.133 Y127.266 E.64819
G1 X119.714 Y127.16 E.01355
G1 X119.714 Y147.939 E.65151
G1 X119.295 Y147.939 E.01314
G1 X119.295 Y127.054 E.65483
G1 X118.876 Y126.949 E.01354
G1 X118.876 Y147.939 E.65813
G1 X118.457 Y147.939 E.01314
G1 X118.457 Y126.843 E.66145
G1 X118.038 Y126.737 E.01355
G1 X118.038 Y147.939 E.66477
G1 X117.619 Y147.939 E.01314
G1 X117.619 Y126.629 E.66816
G1 X117.2 Y126.478 E.01396
G1 X117.2 Y147.939 E.67289
G1 X116.781 Y147.939 E.01314
G1 X116.781 Y126.327 E.67763
G1 X116.362 Y126.176 E.01396
G1 X116.362 Y147.939 E.68236
G1 X115.943 Y147.939 E.01314
G1 X115.943 Y126.025 E.6871
G1 X115.524 Y125.874 E.01396
G1 X115.524 Y147.939 E.69183
G1 X115.105 Y147.939 E.01314
G1 X115.105 Y125.721 E.69663
G1 X114.686 Y125.521 E.01456
G1 X114.686 Y147.939 E.7029
G1 X114.267 Y147.939 E.01314
G1 X114.267 Y125.322 E.70914
G1 X113.848 Y125.122 E.01456
G1 X113.848 Y147.939 E.71541
G1 X113.429 Y147.939 E.01314
G1 X113.429 Y124.923 E.72165
G1 X113.01 Y124.723 E.01456
G1 X113.01 Y147.939 E.72792
G1 X112.591 Y147.939 E.01314
G1 X112.591 Y124.51 E.7346
G1 X112.172 Y124.257 E.01535
G1 X112.172 Y147.939 E.74253
G1 X111.753 Y147.939 E.01314
G1 X111.753 Y123.806 E.75667
M204 S1000
;WIPE_START
G1 F8640
G1 X111.753 Y127.271 E-.8
;WIPE_END
G1 Z.6 F720
G1 X133.023 Y75.537 F10800
G1 Z.2 F720
G1 E.8 F2100
M204 S800
;TYPE:Perimeter
;WIDTH:0.419999
G1 F1200
G1 X135.417 Y76.398 E.07977
G1 X137.698 Y77.484 E.07921
G1 X139.863 Y78.79 E.07928
G1 X141.889 Y80.303 E.07928
G1 X143.758 Y82.01 E.07936
G1 X145.454 Y83.892 E.07943
G1 X146.957 Y85.933 E.07947
G1 X148.254 Y88.113 E.07953
G1 X149.334 Y90.41 E.07958
G1 X150.184 Y92.803 E.07962
G1 X150.797 Y95.268 E.07964
G1 X151.167 Y97.783 E.0797
G1 X151.291 Y100.321 E.07967
G1 X151.167 Y102.86 E.0797
G1 X150.797 Y105.374 E.07967
G1 X150.184 Y107.839 E.07964
G1 X149.334 Y110.232 E.07962
G1 X148.254 Y112.53 E.07961
G1 X146.957 Y114.709 E.07951
G1 X145.454 Y116.75 E.07947
G1 X143.758 Y118.633 E.07946
G1 X141.889 Y120.339 E.07934
G1 X139.863 Y121.852 E.07928
G1 X137.698 Y123.158 E.07928
G1 X135.417 Y124.245 E.07922
G1 X133.042 Y125.101 E.07916
G1 X130.595 Y125.718 E.07913
G1 X128.099 Y126.09 E.07912
G1 X125.579 Y126.215 E.07911
G1 X123.06 Y126.09 E.07908
G1 X120.564 Y125.718 E.07912
G1 X118.117 Y125.101 E.07913
G1 X115.742 Y124.245 E.07916
G1 X113.461 Y123.158 E.07922
G1 X111.296 Y121.852 E.07928
G1 X109.27 Y120.339 E.07928
G1 X107.401 Y118.633 E.07934
G1 X105.705 Y116.75 E.07946
G1 X104.202 Y114.709 E.07947
G1 X102.905 Y112.53 E.07951
G1 X101.825 Y110.232 E.07961
G1 X100.975 Y107.839 E.07962
G1 X100.362 Y105.374 E.07964
G1 X99.992 Y102.86 E.07967
G1 X99.868 Y100.321 E.0797
G1 X99.992 Y97.783 E.07967
G1 X100.362 Y95.268 E.0797
G1 X100.975 Y92.803 E.07964
G1 X101.825 Y90.41 E.07962
G1 X102.905 Y88.113 E.07958
G1 X104.202 Y85.933 E.07953
G1 X105.705 Y83.892 E.07947
G1 X107.401 Y82.01 E.07943
G1 X109.27 Y80.303 E.07936
G1 X111.296 Y78.79 E.07928
G1 X113.461 Y77.484 E.07928
G1 X115.742 Y76.398 E.07921
G1 X118.117 Y75.542 E.07916
G1 X120.564 Y74.925 E.07913
G1 X123.06 Y74.552 E.07913
G1 X125.588 Y74.428 E.07936
G1 X128.099 Y74.552 E.07883
G1 X130.595 Y74.925 E.07913
G1 X132.964 Y75.522 E.0766
M204 S1000
G1 X133.115 Y75.171 F10800
M204 S800
;TYPE:External perimeter
G1 F1200
G1 X135.562 Y76.049 E.08151
G1 X137.877 Y77.152 E.0804
G1 X140.073 Y78.477 E.08042
G1 X142.129 Y80.012 E.08045
G1 X144.026 Y81.744 E.08054
G1 X145.746 Y83.654 E.08059
G1 X147.271 Y85.724 E.08061
G1 X148.588 Y87.936 E.08072
G1 X149.683 Y90.267 E.08075
G1 X150.545 Y92.694 E.08075
G1 X151.168 Y95.195 E.08081
G1 X151.543 Y97.746 E.08084
G1 X151.669 Y100.321 E.08083
G1 X151.543 Y102.896 E.08083
G1 X151.168 Y105.447 E.08084
G1 X150.545 Y107.948 E.08081
G1 X149.683 Y110.375 E.08075
G1 X148.588 Y112.707 E.08078
G1 X147.271 Y114.917 E.08066
G1 X145.746 Y116.989 E.08067
G1 X144.026 Y118.899 E.08059
G1 X142.129 Y120.63 E.08052
G1 X140.073 Y122.166 E.08047
G1 X137.877 Y123.491 E.08042
G1 X135.562 Y124.593 E.08039
G1 X133.153 Y125.462 E.0803
G1 X130.669 Y126.088 E.08032
G1 X128.136 Y126.466 E.0803
G1 X125.579 Y126.593 E.08027
G1 X123.023 Y126.466 E.08024
G1 X120.49 Y126.088 E.0803
G1 X118.006 Y125.462 E.08032
G1 X115.597 Y124.593 E.0803
G1 X113.282 Y123.491 E.08039
G1 X111.086 Y122.166 E.08042
G1 X109.03 Y120.63 E.08047
G1 X107.133 Y118.899 E.08052
G1 X105.413 Y116.989 E.08059
G1 X103.888 Y114.917 E.08067
G1 X102.571 Y112.707 E.08066
G1 X101.476 Y110.375 E.08078
G1 X100.614 Y107.948 E.08075
G1 X99.991 Y105.447 E.08081
G1 X99.616 Y102.896 E.08084
G1 X99.49 Y100.321 E.08083
G1 X99.616 Y97.746 E.08083
G1 X99.991 Y95.195 E.08084
G1 X100.614 Y92.694 E.08081
G1 X101.476 Y90.267 E.08075
G1 X102.571 Y87.936 E.08075
G1 X103.888 Y85.724 E.08072
G1 X105.413 Y83.654 E.08061
G1 X107.133 Y81.744 E.08059
G1 X109.03 Y80.012 E.08054
G1 X111.086 Y78.477 E.08045
G1 X113.282 Y77.152 E.08042
G1 X115.597 Y76.049 E.0804
G1 X118.006 Y75.181 E.08029
G1 X120.49 Y74.555 E.08032
G1 X123.023 Y74.176 E.0803
G1 X125.588 Y74.05 E.08052
G1 X128.136 Y74.176 E.07999
G1 X130.669 Y74.555 E.0803
G1 X133.057 Y75.157 E.07722
M204 S1000
G1 X133.205 Y75.561 F10800
;WIPE_START
G1 F8640
G1 X135.562 Y76.049 E-.61399
G1 X136.289 Y76.396 E-.18601
;WIPE_END
G1 Z.6 F720
G1 X146.894 Y86.159 F10800
G1 Z.2 F720
G1 E.8 F2100
M204 S800
;TYPE:Solid infill
;WIDTH:0.420151
G1 F1200
G1 X140.202 Y79.467 E.29685
G1 X139.673 Y79.072 E.02071
G1 X138.666 Y78.465 E.03688
G1 X147.191 Y86.989 E.37814
G1 X147.967 Y88.299 E.04776
G1 X137.373 Y77.706 E.46992
G1 X136.355 Y77.22 E.03538
G1 X148.44 Y89.305 E.53608
G1 X148.912 Y90.311 E.03486
G1 X135.336 Y76.735 E.60222
G1 X134.493 Y76.425 E.02817
G1 X149.247 Y91.18 E.6545
G1 X149.541 Y92.007 E.02753
G1 X133.659 Y76.125 E.70452
G1 X132.842 Y75.841 E.02713
G1 X149.835 Y92.835 E.75382
G1 X150.021 Y93.554 E.0233
G1 X132.129 Y75.662 E.79368
G1 X131.415 Y75.482 E.0231
G1 X150.198 Y94.264 E.83318
G1 X150.375 Y94.975 E.02298
G1 X130.702 Y75.302 E.87268
G1 X130.528 Y75.258 E.00563
G1 X130.054 Y75.187 E.01503
G1 X150.51 Y95.643 E.90742
G1 X150.601 Y96.268 E.01981
G1 X129.426 Y75.093 E.93931
G1 X128.799 Y74.999 E.01989
G1 X150.693 Y96.894 E.97123
G1 X150.785 Y97.519 E.01982
G1 X128.172 Y74.906 E1.0031
G1 X127.599 Y74.867 E.01801
M73 P1 R114
G1 X150.843 Y98.111 E1.03109
G1 X150.871 Y98.672 E.01762
G1 X127.038 Y74.839 E1.05722
G1 X126.477 Y74.811 E.01762
G1 X150.898 Y99.233 E1.08332
G1 X150.926 Y99.794 E.01762
G1 X125.916 Y74.784 E1.10943
G1 X125.588 Y74.768 E.0103
G1 X125.377 Y74.778 E.00663
G1 X150.95 Y100.352 E1.13443
G1 X150.925 Y100.86 E.01595
M73 P2 R114
G1 X124.868 Y74.803 E1.15587
G1 X124.359 Y74.828 E.01598
G1 X150.9 Y101.369 E1.17734
G1 X150.876 Y101.877 E.01595
G1 X123.851 Y74.853 E1.19879
G1 X123.342 Y74.877 E.01598
G1 X150.851 Y102.386 E1.22028
G1 X150.82 Y102.889 E.01581
G1 X122.856 Y74.925 E1.24047
G1 X122.392 Y74.995 E.01472
G1 X150.752 Y103.354 E1.25801
G1 X150.683 Y103.819 E.01475
G1 X121.928 Y75.064 E1.27556
G1 X121.464 Y75.133 E.01471
G1 X150.615 Y104.284 E1.29312
G1 X150.546 Y104.749 E.01475
G1 X121 Y75.203 E1.31065
G1 X120.544 Y75.28 E.01451
G1 X150.478 Y105.214 E1.32786
G1 X150.379 Y105.649 E.01399
G1 X120.118 Y75.388 E1.34236
G1 X119.692 Y75.495 E.01378
G1 X150.273 Y106.076 E1.35656
G1 X150.167 Y106.503 E.0138
G1 X119.266 Y75.602 E1.37075
G1 X118.84 Y75.71 E.01379
G1 X150.06 Y106.93 E1.3849
G1 X149.954 Y107.358 E.01383
G1 X118.414 Y75.817 E1.39912
G1 X118.006 Y75.943 E.01339
G1 X149.844 Y107.781 E1.41232
G1 X149.704 Y108.175 E.01312
G1 X117.613 Y76.084 E1.42354
G1 X117.221 Y76.225 E.01307
G1 X149.565 Y108.569 E1.43476
G1 X149.425 Y108.962 E.01309
G1 X116.829 Y76.367 E1.44592
G1 X116.437 Y76.508 E.01307
G1 X149.285 Y109.356 E1.45712
G1 X149.145 Y109.749 E.01309
G1 X116.045 Y76.649 E1.4683
G1 X115.67 Y76.808 E.01278
G1 X149.002 Y110.14 E1.47859
G1 X148.831 Y110.503 E.01259
G1 X115.309 Y76.98 E1.48704
G1 X114.947 Y77.152 E.01257
M73 P2 R113
G1 X148.661 Y110.866 E1.49554
G1 X148.49 Y111.229 E.01259
G1 X114.586 Y77.324 E1.50399
G1 X114.224 Y77.496 E.01257
G1 X148.32 Y111.592 E1.51248
G1 X148.15 Y111.955 E.01257
G1 X113.863 Y77.669 E1.52093
G1 X113.511 Y77.85 E.01242
G1 X147.979 Y112.318 E1.52898
G1 X147.784 Y112.656 E.01224
G1 X113.179 Y78.051 E1.53506
G1 X112.846 Y78.252 E.0122
G1 X147.585 Y112.991 E1.541
G1 X147.386 Y113.325 E.0122
G1 X112.513 Y78.452 E1.54695
G1 X112.18 Y78.653 E.0122
M73 P3 R113
G1 X147.187 Y113.66 E1.55289
G1 X146.988 Y113.994 E.0122
G1 X111.848 Y78.854 E1.55879
G1 X111.515 Y79.055 E.0122
G1 X146.788 Y114.328 E1.56469
G1 X146.578 Y114.651 E.01208
G1 X111.207 Y79.28 E1.56904
G1 X110.902 Y79.508 E.01194
G1 X146.352 Y114.958 E1.57254
G1 X146.125 Y115.266 E.012
G1 X110.596 Y79.736 E1.57607
G1 X110.291 Y79.965 E.01196
G1 X145.899 Y115.573 E1.57955
G1 X145.673 Y115.88 E.01196
G1 X109.985 Y80.193 E1.58308
G1 X109.68 Y80.421 E.01194
G1 X145.447 Y116.187 E1.58658
G1 X145.22 Y116.495 E.012
G1 X109.384 Y80.658 E1.58969
G1 X109.105 Y80.913 E.01186
G1 X144.971 Y116.779 E1.591
G1 X144.718 Y117.06 E.01186
G1 X108.826 Y81.168 E1.59215
G1 X108.548 Y81.422 E.01181
G1 X144.466 Y117.34 E1.5933
G1 X144.213 Y117.621 E.01186
G1 X108.269 Y81.677 E1.59446
G1 X107.99 Y81.931 E.01183
G1 X143.96 Y117.902 E1.59563
G1 X143.707 Y118.182 E.01184
G1 X107.711 Y82.186 E1.59676
G1 X107.642 Y82.249 E.00293
M73 P3 R112
G1 X107.452 Y82.46 E.00891
G1 X143.448 Y118.457 E1.59679
G1 X143.169 Y118.711 E.01183
G1 X107.199 Y82.741 E1.59561
G1 X106.946 Y83.022 E.01186
G1 X142.89 Y118.966 E1.59446
G1 X142.611 Y119.22 E.01183
G1 X106.693 Y83.302 E1.5933
G1 X106.44 Y83.583 E.01186
G1 X142.332 Y119.475 E1.59215
G1 X142.053 Y119.729 E.01183
G1 X106.188 Y83.864 E1.59095
G1 X105.938 Y84.148 E.01187
